src/images/swg/marker.svg

<svg xmlns="http://www.w3.org/2000/svg" width="278" height="407" fill="none"><path fill="#00BA0C" d="M9.46 177C45 248.5 114 306 144 407c29.5-106.5 74.5-132.5 124.46-230.5C304.96 81.5 215 0 144 0 24.0002 0-20.0399 104.5 9.46 177Z"/><circle cx="138.96" cy="137.5" r="118" fill="#fff"/><circle cx="138.96" cy="137.5" r="109" stroke="#00BA0C" stroke-width="5"/><path fill="#00BA0C" d="M138.96 169.5H97.0642c-.7273 0-1.4541.149-2.0906.501-12.6847 7.014-12.6847 29.984 0 36.998.6365.352 1.3633.501 2.0906.501H138.96c2.762 0 5-2.239 5-5v-28c0-2.761-2.238-5-5-5ZM112.369 111.832l20.948-36.2825c.364-.6299.598-1.3338.611-2.061.268-14.4924-19.624-25.9772-32.041-18.4991-.623.3753-1.115.9302-1.479 1.5601L79.4601 92.8324c-1.3807 2.3914-.5614 5.4494 1.8301 6.8301l24.2488 13.9995c2.391 1.381 5.449.562 6.83-1.83ZM173.46 118.83l20.948 36.283c.364.63.856 1.185 1.479 1.56 12.417 7.478 32.309-4.007 32.041-18.499-.013-.727-.247-1.431-.611-2.061l-20.948-36.2829c-1.381-2.3914-4.439-3.2108-6.83-1.8301l-24.249 14c-2.391 1.381-3.211 4.439-1.83 6.83Z"/><path fill="#00BA0C" d="M155.66 91.6471C141.465 66.4728 139.293 53.3832 119.96 50c48.236-6.4315 61.969 12.9601 68.071 23.6644.82 1.4394 2.631 1.9569 4.078 1.1499l11.743-6.5492c.458-.2552.95.2756.661.7125L182.495 102.26a.4962.4962 0 0 1-.412.224l-38.236.32c-.518.005-.7-.684-.248-.936l10.912-6.0862c1.464-.8162 1.972-2.6751 1.149-4.1347ZM96.8088 142.192c-15.0296 24.685-25.3891 32.975-18.8954 51.496-29.1789-38.944-18.969-60.401-12.6106-70.954.855-1.42.4221-3.252-.989-4.12l-11.452-7.047c-.4462-.274-.2235-.963.2989-.924l39.7969 2.949a.498.498 0 0 1 .3972.251l18.9602 33.205c.257.449-.255.945-.696.673l-10.641-6.547c-1.4276-.879-3.2978-.414-4.1692 1.018ZM170.234 167.658c28.897.454 41.293 5.186 53.973-9.795-18.797 44.886-42.469 46.952-54.79 46.817-1.656-.019-3.017 1.283-3.051 2.939l-.274 13.444c-.011.523-.717.68-.949.21l-17.617-35.806a.5043.5043 0 0 1 .015-.47l19.025-33.168c.258-.45.944-.259.934.259l-.255 12.492c-.035 1.675 1.314 3.052 2.989 3.078Z"/></svg>

<svg width="278" height="407" viewBox="0 0 278 407" fill="none" xmlns="http://www.w3.org/2000/svg">
<path d="M9.46008 177C45 248.5 114 306 144 407C173.5 300.5 218.5 274.5 268.46 176.5C304.96 81.5 215 0 144 0C24.0002 1.8999e-05 -20.0399 104.5 9.46008 177Z" fill="#00BA0C"/>
<circle cx="138.96" cy="137.5" r="118" fill="white"/>
<circle cx="138.96" cy="137.5" r="109" stroke="#00BA0C" stroke-width="5"/>
<path d="M138.96 169.5H97.0642C96.3369 169.5 95.6101 169.649 94.9736 170.001C82.2889 177.015 82.2889 199.985 94.9736 206.999C95.6101 207.351 96.3369 207.5 97.0642 207.5H138.96C141.722 207.5 143.96 205.261 143.96 202.5V174.5C143.96 171.739 141.722 169.5 138.96 169.5Z" fill="#00BA0C"/>
<path d="M112.369 111.832L133.317 75.5495C133.681 74.9196 133.915 74.2157 133.928 73.4885C134.196 58.9961 114.304 47.5113 101.887 54.9894C101.264 55.3647 100.772 55.9196 100.408 56.5495L79.4601 92.8324C78.0794 95.2238 78.8987 98.2818 81.2902 99.6625L105.539 113.662C107.93 115.043 110.988 114.224 112.369 111.832Z" fill="#00BA0C"/>
<path d="M173.46 118.83L194.408 155.113C194.772 155.743 195.264 156.298 195.887 156.673C208.304 164.151 228.196 152.666 227.928 138.174C227.915 137.447 227.681 136.743 227.317 136.113L206.369 99.8301C204.988 97.4387 201.93 96.6193 199.539 98L175.29 112C172.899 113.381 172.079 116.439 173.46 118.83Z" fill="#00BA0C"/>
<path d="M155.66 91.6471C141.465 66.4728 139.293 53.3832 119.96 50C168.196 43.5685 181.929 62.9601 188.031 73.6644C188.851 75.1038 190.662 75.6213 192.109 74.8143L203.852 68.2651C204.31 68.0099 204.802 68.5407 204.513 68.9776L182.495 102.26C182.404 102.399 182.249 102.483 182.083 102.484L143.847 102.804C143.329 102.809 143.147 102.12 143.599 101.868L154.511 95.7818C155.975 94.9656 156.483 93.1067 155.66 91.6471Z" fill="#00BA0C"/>
<path d="M96.8088 142.192C81.7792 166.877 71.4197 175.167 77.9134 193.688C48.7345 154.744 58.9444 133.287 65.3028 122.734C66.1578 121.314 65.7249 119.482 64.3138 118.614L52.8618 111.567C52.4156 111.293 52.6383 110.604 53.1607 110.643L92.9576 113.592C93.1235 113.604 93.2724 113.698 93.3548 113.843L112.315 147.048C112.572 147.497 112.06 147.993 111.619 147.721L100.978 141.174C99.5504 140.295 97.6802 140.76 96.8088 142.192Z" fill="#00BA0C"/>
<path d="M170.234 167.658C199.131 168.112 211.527 172.844 224.207 157.863C205.41 202.749 181.738 204.815 169.417 204.68C167.761 204.661 166.4 205.963 166.366 207.619L166.092 221.063C166.081 221.586 165.375 221.743 165.143 221.273L147.526 185.467C147.453 185.317 147.459 185.141 147.541 184.997L166.566 151.829C166.824 151.379 167.51 151.57 167.5 152.088L167.245 164.58C167.21 166.255 168.559 167.632 170.234 167.658Z" fill="#00BA0C"/>
</svg>
